img/gift@hover.svg

<svg width="30" height="30" viewBox="0 0 30 30" fill="none" xmlns="http://www.w3.org/2000/svg">
<path d="M28.6329 8.48451C28.821 7.98312 28.6199 7.385 28.5331 6.88373C28.4038 6.13771 28.4116 5.25154 28.1598 4.53705C28.0154 4.12731 27.7018 3.95698 27.2965 3.8821C26.5578 3.74563 25.8008 3.68809 25.059 3.56059C23.6167 3.31268 22.1829 3.01427 20.7619 2.66452C19.195 2.2788 17.6712 1.75591 16.1135 1.34353C14.9858 1.04499 13.7916 1.01874 12.8454 1.71794C12.598 0.620424 11.997 -0.255199 10.5581 0.0679446C8.97612 0.423198 7.3345 1.42861 6.34028 2.70729C5.73817 3.48167 5.10759 4.84942 5.45042 5.86016C4.32273 6.39717 3.16949 6.93816 2.10513 7.58129C1.06773 8.20818 1.24469 9.2529 1.43453 10.3064C1.53355 10.856 1.63867 11.4699 1.8799 11.9777C2.02533 12.284 2.23082 12.4634 2.48804 12.5855C2.90974 15.6021 3.37099 18.6098 3.86365 21.616C3.98294 22.3438 4.10224 23.0716 4.22148 23.7995C4.32366 24.4231 4.32783 25.2125 4.68009 25.756C4.96374 26.1938 5.44034 26.3465 5.91706 26.4882C6.69366 26.719 7.46493 26.9642 8.23678 27.2104C8.38145 27.2566 8.5018 27.2238 8.59022 27.1516C8.65239 27.2516 8.72961 27.3444 8.82811 27.427C9.27635 27.8027 9.97069 27.9662 10.5136 28.1492C11.0287 28.3229 11.9149 28.7761 12.425 28.3907C12.4502 28.3717 12.4732 28.3514 12.4946 28.3304C13.4295 28.6525 14.3688 28.9395 15.3256 29.2C16.3081 29.4675 17.365 29.9 18.3818 29.9925C19.3338 30.0791 20.106 29.3993 20.8397 28.8857C21.6795 28.2979 22.5009 27.6843 23.3052 27.049C24.9288 25.7665 26.5782 24.4136 27.9923 22.8984C28.6676 22.1748 28.5557 21.3201 28.5473 20.387C28.5368 19.2217 28.5145 18.0564 28.4821 16.8914C28.4106 14.3167 28.2835 11.7448 28.103 9.17556C28.3318 8.97499 28.5326 8.75175 28.6329 8.48451ZM21.383 3.75594C23.1028 4.14618 24.8348 4.45532 26.5758 4.75297C24.9257 6.13707 23.2501 7.48847 21.5588 8.82206C20.6679 9.52454 19.7803 10.2353 18.8675 10.9093C18.2916 11.3346 17.8463 11.4448 17.1561 11.2808C16.5783 11.1434 16.0045 10.9861 15.4297 10.8368C14.2704 10.5357 13.1108 10.2369 11.9485 9.9538C12.1163 9.84359 12.2858 9.74316 12.4249 9.64536C12.7448 9.42048 13.0647 9.19554 13.3846 8.9706C13.4552 9.11943 13.5416 9.26316 13.6497 9.39974C14.1231 9.99804 14.8379 10.1754 15.5723 10.0523C17.3396 9.75605 19.0719 8.25734 20.1679 6.90746C20.7316 6.21301 21.595 4.79035 21.383 3.75594ZM13.1715 8.29759C12.6 8.67658 12.0275 9.05433 11.4571 9.43507C11.312 9.5321 11.1667 9.62907 11.0317 9.73454C10.0335 9.49993 9.03266 9.28003 8.0276 9.08363C8.12094 8.99486 8.24112 8.91411 8.39024 8.82036C8.77748 8.57691 9.16854 8.33978 9.54875 8.08548C10.2083 7.64433 10.8699 7.20775 11.5375 6.77914C11.9485 7.11242 12.5939 7.17998 13.095 7.13703C13.0917 7.52744 13.1011 7.92089 13.1715 8.29759ZM11.2118 10.8257C11.2296 10.6989 11.281 10.5848 11.3529 10.4799C13.0733 10.8972 14.7847 11.3472 16.4889 11.7848C16.9894 11.9133 17.4309 12.0217 17.8624 12.0104C17.8863 13.101 17.8593 14.2199 17.9411 15.3121C17.7307 15.2743 17.5214 15.2063 17.3269 15.1559C16.6695 14.9855 16.014 14.8085 15.3595 14.6273C14.057 14.267 12.765 13.8727 11.4573 13.5318C11.4547 13.5062 11.4522 13.4806 11.4496 13.455L11.307 12.0422C11.2684 11.6588 11.1573 11.2141 11.2118 10.8257ZM19.7358 3.55655C20.0418 3.58368 20.3646 3.64257 20.4401 3.9653C20.5051 4.24262 20.3794 4.59459 20.2894 4.85803C20.072 5.49518 19.6789 6.06336 19.2317 6.56047C18.4282 7.45373 17.422 8.32103 16.3358 8.84726C15.7144 9.14831 14.8637 9.44374 14.2947 8.9021C13.7927 8.42439 13.7406 7.67269 13.7436 7.00859C14.3108 6.83041 14.8171 6.48629 15.1907 6.01578C15.2664 6.40168 15.3421 6.78758 15.418 7.17347C15.489 7.53535 16.0271 7.37867 15.9667 7.02219C15.8972 6.61115 15.8277 6.20012 15.7581 5.78908C16.2348 5.69059 16.739 5.73096 17.2123 5.8199C17.5342 5.93117 17.6864 5.39592 17.3536 5.30744C16.8463 5.1725 16.3623 5.16735 15.8622 5.2103C15.7995 5.20865 15.7366 5.20848 15.6736 5.20854C15.7458 5.03516 15.8005 4.85563 15.8255 4.6761C15.8651 4.66772 15.9057 4.65518 15.9479 4.63332C17.0987 4.03543 18.395 3.43755 19.7358 3.55655ZM17.9699 2.85882C17.1672 3.0612 16.3572 3.39032 15.6838 3.85907C15.665 3.82667 15.6463 3.79421 15.6236 3.76268C15.5943 3.72178 15.5621 3.68229 15.5279 3.64397C16.1483 3.34186 16.7699 3.03038 17.3595 2.6736C17.563 2.73507 17.766 2.79852 17.9699 2.85882ZM13.1747 2.52425C14.0951 1.72691 15.3945 2.07003 16.4368 2.39341C16.466 2.40243 16.4953 2.41099 16.5244 2.42001C16.0422 2.69651 15.5715 2.99727 15.1055 3.29651C14.6001 2.98245 13.9299 2.83368 13.4078 2.90704C13.2617 2.92761 13.1274 2.96675 13.0011 3.01825C12.9956 2.88794 12.9876 2.75552 12.9768 2.62268C13.0442 2.6088 13.1117 2.57886 13.1747 2.52425ZM14.9517 4.32383C14.9609 4.33778 14.971 4.34985 14.9816 4.36075C15.1344 5.05274 13.9716 5.98514 13.4228 6.16971C12.9534 6.32762 12.0987 6.45418 11.9244 5.80807C11.8224 5.42996 12.0958 4.80284 12.3027 4.5009C12.8977 3.63278 14.3081 3.34889 14.9517 4.32383ZM7.07762 3.1553C7.82094 2.25858 8.86215 1.62771 9.93793 1.20823C10.5276 0.978313 11.3848 0.598568 11.8536 1.22077C12.2568 1.75597 12.4727 2.60329 12.5686 3.27067C12.4671 3.3496 12.3718 3.43696 12.283 3.53253C12.2265 3.57231 12.1712 3.61503 12.1174 3.66044C11.9804 3.36524 11.8215 3.08095 11.6247 2.81985C11.4088 2.53339 10.9854 2.77069 11.1403 3.10298C11.2784 3.39917 11.3984 3.69782 11.4987 4.00555C11.1692 4.03602 10.8384 4.09579 10.5152 4.14395C10.1015 4.20559 10.269 4.86407 10.691 4.7818C10.9213 4.73692 11.1555 4.70188 11.3885 4.66245C11.2277 5.02221 11.1144 5.43647 11.1195 5.82143C9.8334 6.20715 8.57088 6.49953 7.22024 6.21676C5.54341 5.86584 6.32141 4.06754 7.07762 3.1553ZM3.32546 7.83406C4.12017 7.33244 4.91704 6.83574 5.71649 6.34232C5.8328 6.48435 5.97999 6.61238 6.16315 6.72189C6.86587 7.14201 7.8919 7.18097 8.68743 7.175C9.09741 7.17189 9.51424 7.13697 9.92522 7.06754C9.71721 7.18332 9.50961 7.29963 9.30102 7.41459C8.67582 7.75918 7.88622 8.08794 7.37118 8.59009C7.26682 8.69187 7.19176 8.80115 7.1378 8.91622C5.6204 8.64248 4.0921 8.42908 2.54763 8.3048C2.79466 8.11249 3.1157 7.96648 3.32546 7.83406ZM2.3906 10.288C2.3016 9.86814 2.1141 9.28917 2.19062 8.84281C3.80781 8.98712 5.41444 9.22788 7.01212 9.5304C7.00825 9.68937 7.01798 9.85314 7.02788 10.0189C7.08231 10.9275 7.14647 11.8357 7.20899 12.7438C6.26932 12.5813 5.33452 12.3934 4.40722 12.1704C4.03632 12.0812 3.17851 11.9973 2.87834 11.7379C2.55595 11.4594 2.47498 10.686 2.3906 10.288ZM6.50809 25.787C6.24419 25.699 5.84938 25.6315 5.62444 25.457C5.30792 25.2114 5.29638 24.8167 5.23064 24.4609C4.9788 23.098 4.73558 21.7335 4.48808 20.3698C4.02624 17.8257 3.52913 15.2908 3.00871 12.7586C4.3795 13.0978 5.76565 13.3802 7.16024 13.6012C7.19921 13.6073 7.23612 13.6076 7.27174 13.6049C7.5002 16.8009 7.7818 19.9929 8.06633 23.1844C8.14291 24.0437 8.22278 24.9027 8.30217 25.7617C8.32057 25.9608 8.33071 26.1684 8.35456 26.3719C7.73803 26.1799 7.12051 25.9912 6.50809 25.787ZM11.8709 27.7203C11.7627 27.7724 11.2848 27.5429 11.185 27.5103C10.6329 27.3293 9.68305 27.149 9.32733 26.6774C9.10496 26.3826 9.13145 25.8619 9.09266 25.504C9.04608 25.0746 9.00026 24.645 8.95479 24.2155C8.62737 21.1237 8.34577 18.0287 8.11315 14.9283C7.98471 13.2163 7.7886 11.4779 7.78157 9.76038C7.78145 9.73273 7.78221 9.70665 7.78321 9.68093C8.70864 9.86732 9.63108 10.0718 10.5509 10.2884C10.5127 10.3648 10.479 10.445 10.4566 10.5345C10.306 11.1345 10.4697 11.8248 10.5303 12.4275C10.6119 13.241 10.6936 14.0544 10.7752 14.8678C11.0844 17.9477 11.3979 21.0271 11.7155 24.1061C11.7896 24.8237 11.8598 25.5419 11.9096 26.2616C11.9358 26.6406 11.9681 27.0249 11.9699 27.4051C11.9706 27.5797 12.0171 27.6497 11.8709 27.7203ZM18.4627 29.0947C18.3469 29.098 18.2253 29.0886 18.0946 29.0628C17.4437 28.934 16.7995 28.754 16.1548 28.5972C15.0114 28.3192 13.8744 28.0591 12.7191 27.8525C12.7556 27.6218 12.7349 27.3707 12.7274 27.1508C12.6972 26.2608 12.627 25.3728 12.5462 24.4861C12.3905 22.7774 12.2182 21.0701 12.0459 19.363C11.8739 17.6582 11.7018 15.9534 11.5298 14.2487C12.7878 14.7445 14.0759 15.1545 15.3695 15.5497C16.1752 15.7958 17.1663 16.2533 18.0862 16.2878C18.3151 20.5587 18.5145 24.8158 18.4627 29.0947ZM27.5699 21.8476C27.4715 22.1714 27.15 22.4158 26.9203 22.6451C26.4733 23.0912 26.0181 23.5291 25.5549 23.9583C23.7295 25.6498 21.7698 27.1929 19.7027 28.5788C19.5348 28.6914 19.3764 28.794 19.2178 28.8778C19.3594 24.6866 19.2065 20.4484 18.5646 16.3025C18.5841 16.2891 18.6026 16.274 18.6188 16.2555C18.7639 16.2296 18.9058 16.1896 19.0431 16.1311C21.5786 15.0507 23.696 12.8589 25.7696 11.1085C26.2609 10.6938 26.7523 10.2791 27.2436 9.86433C27.3813 12.2479 27.4833 14.6338 27.5378 17.0207C27.5694 18.4016 27.5824 19.7826 27.5906 21.1638C27.5918 21.3686 27.6316 21.6447 27.5699 21.8476ZM27.7697 8.01171C27.6892 8.48404 26.8443 8.98038 26.5048 9.26989C26.0086 9.69294 25.5124 10.1159 25.0162 10.539C23.2042 12.0839 21.4181 13.6871 19.3423 14.8761C19.137 14.9937 18.9121 15.142 18.6816 15.2391C18.6311 14.1387 18.4713 13.025 18.3704 11.9346C18.5865 11.8731 18.8047 11.7724 19.0314 11.617C20.003 10.951 20.9242 10.1904 21.8538 9.46724C23.6841 8.04347 25.4691 6.5593 27.232 5.05297C27.2395 5.09598 27.2473 5.14772 27.2594 5.2117C27.3159 5.51053 27.3787 5.8083 27.4383 6.10654C27.498 6.40484 27.5599 6.70285 27.6142 7.0022C27.6667 7.29218 27.8202 7.71523 27.7697 8.01171Z" fill="white"/>
</svg>

<svg width="30" height="30" viewBox="0 0 30 30" fill="none" xmlns="http://www.w3.org/2000/svg"><path d="M28.633 8.485c.188-.502-.013-1.1-.1-1.601-.13-.746-.121-1.632-.373-2.347-.145-.41-.458-.58-.863-.655-.74-.136-1.496-.194-2.238-.321a61.75 61.75 0 01-4.297-.896c-1.567-.386-3.09-.91-4.649-1.321-1.127-.299-2.321-.325-3.268.374-.247-1.098-.848-1.973-2.287-1.65-1.582.355-3.223 1.36-4.218 2.64-.602.774-1.232 2.141-.89 3.152-1.127.537-2.28 1.078-3.345 1.721-1.037.627-.86 1.672-.67 2.725.099.55.204 1.164.445 1.672.145.306.35.485.608.607a387.19 387.19 0 001.376 9.031l.357 2.183c.103.624.107 1.413.46 1.957.283.438.76.59 1.236.732.777.231 1.548.476 2.32.722a.362.362 0 00.353-.058c.062.1.14.192.238.275.448.376 1.143.54 1.686.722.515.174 1.4.627 1.911.242a.707.707 0 00.07-.06 45.32 45.32 0 002.83.869c.983.268 2.04.7 3.057.793.952.086 1.724-.594 2.458-1.107a53.143 53.143 0 002.465-1.837c1.624-1.282 3.273-2.635 4.687-4.15.676-.724.564-1.579.555-2.512a186.039 186.039 0 00-.444-11.211c.229-.201.43-.424.53-.691zm-7.25-4.73c1.72.391 3.452.7 5.193.998a213.404 213.404 0 01-5.017 4.07c-.891.702-1.779 1.412-2.692 2.086-.575.426-1.02.536-1.71.372-.579-.138-1.152-.295-1.727-.444-1.16-.301-2.32-.6-3.482-.883.168-.11.338-.21.477-.309l.96-.674c.07.148.157.292.265.429.473.598 1.188.775 1.922.652 1.768-.296 3.5-1.795 4.596-3.145.564-.694 1.427-2.117 1.215-3.151zm-8.211 4.543c-.572.379-1.145.756-1.715 1.137-.145.097-.29.194-.425.3a81.186 81.186 0 00-3.004-.651 2.32 2.32 0 01.362-.264c.387-.243.779-.48 1.159-.735.66-.44 1.32-.877 1.989-1.306.41.333 1.056.401 1.557.358-.003.39.006.784.076 1.16zm-1.96 2.528a.808.808 0 01.14-.346c1.721.417 3.433.867 5.137 1.305.5.128.942.237 1.373.225.024 1.091-.003 2.21.08 3.302-.211-.038-.42-.106-.615-.156-.658-.17-1.313-.348-1.968-.529-1.302-.36-2.594-.754-3.902-1.095l-.007-.077-.143-1.413c-.039-.383-.15-.828-.095-1.216zm8.524-7.27c.306.028.629.087.704.41.065.277-.06.629-.15.892-.218.637-.611 1.205-1.058 1.702-.804.894-1.81 1.761-2.896 2.287-.622.301-1.472.597-2.041.055-.502-.478-.554-1.23-.551-1.893a2.994 2.994 0 001.447-.993l.227 1.157c.071.362.61.206.549-.15l-.209-1.234c.477-.098.981-.058 1.454.03.322.112.474-.423.142-.512-.508-.135-.992-.14-1.492-.097a6.924 6.924 0 00-.188-.001 2.18 2.18 0 00.152-.533c.04-.008.08-.02.122-.043 1.15-.598 2.447-1.195 3.788-1.076zM17.97 2.86c-.803.202-1.613.531-2.286 1-.019-.032-.038-.065-.06-.096a1.784 1.784 0 00-.096-.119c.62-.302 1.242-.614 1.832-.97.203.061.406.125.61.185zm-4.795-.335c.92-.797 2.22-.454 3.262-.13l.087.026a33.16 33.16 0 00-1.419.877c-.505-.315-1.175-.463-1.697-.39-.146.02-.28.06-.407.111a8.99 8.99 0 00-.024-.395.43.43 0 00.198-.099zm1.777 1.8a.25.25 0 00.03.037c.152.692-1.01 1.624-1.56 1.809-.469.158-1.323.284-1.498-.362-.102-.378.172-1.005.379-1.307.595-.868 2.005-1.152 2.649-.177zm-7.874-1.17c.743-.896 1.784-1.527 2.86-1.947.59-.23 1.447-.61 1.916.013.403.535.619 1.382.715 2.05a2.404 2.404 0 00-.286.262c-.056.04-.112.082-.166.127a4.61 4.61 0 00-.492-.84c-.216-.287-.64-.05-.485.283.138.296.258.595.359.903-.33.03-.66.09-.984.138-.414.062-.246.72.176.638.23-.045.464-.08.697-.12-.16.36-.274.774-.268 1.16-1.287.385-2.55.678-3.9.395-1.677-.351-.899-2.15-.142-3.062zm-3.753 4.68a279.68 279.68 0 012.391-1.493c.117.142.264.27.447.38.703.42 1.729.459 2.524.453a7.81 7.81 0 001.238-.107c-.208.115-.415.232-.624.347-.625.344-1.415.673-1.93 1.175-.104.102-.18.211-.233.326a47.139 47.139 0 00-4.59-.611c.247-.193.568-.339.777-.47zm-.934 2.453c-.09-.42-.277-.999-.2-1.445 1.617.144 3.223.385 4.821.687-.004.16.006.323.016.489.054.909.118 1.817.181 2.725a44.16 44.16 0 01-2.802-.574c-.37-.089-1.228-.173-1.529-.432-.322-.279-.403-1.052-.487-1.45zm4.117 15.499c-.264-.088-.659-.155-.884-.33-.316-.246-.328-.64-.393-.996-.252-1.363-.495-2.727-.743-4.091a335.266 335.266 0 00-1.48-7.611 49.87 49.87 0 004.152.842.48.48 0 00.112.004c.228 3.196.51 6.388.794 9.58.077.859.157 1.718.236 2.577.019.199.029.406.053.61-.617-.192-1.234-.38-1.847-.585zm5.363 1.933c-.108.052-.586-.177-.686-.21-.552-.18-1.502-.361-1.858-.833-.222-.294-.196-.815-.234-1.173a304.535 304.535 0 01-.98-10.576c-.128-1.712-.324-3.45-.331-5.168l.001-.08c.926.187 1.848.392 2.768.608a1.194 1.194 0 00-.094.246c-.151.6.013 1.29.073 1.893l.245 2.44c.31 3.08.623 6.16.94 9.24.075.717.145 1.435.195 2.155.026.379.058.763.06 1.143 0 .175.047.245-.1.315zm6.592 1.375a1.646 1.646 0 01-.368-.032c-.651-.129-1.296-.309-1.94-.466a56.992 56.992 0 00-3.436-.745c.037-.23.016-.481.008-.701-.03-.89-.1-1.778-.18-2.665a529.606 529.606 0 00-.501-5.123l-.516-5.114c1.258.495 2.546.905 3.84 1.3.805.247 1.796.704 2.716.739.23 4.27.429 8.528.377 12.807zm9.107-7.247c-.099.323-.42.568-.65.797a47.637 47.637 0 01-7.218 5.934 5.509 5.509 0 01-.484.299c.141-4.191-.012-8.43-.653-12.576a.286.286 0 00.054-.046c.145-.026.287-.066.424-.125 2.536-1.08 4.653-3.272 6.727-5.023l1.474-1.244c.137 2.384.24 4.77.294 7.157.031 1.38.044 2.762.053 4.143 0 .205.04.48-.021.684zm.2-13.836c-.08.472-.926.968-1.265 1.258l-1.489 1.269c-1.812 1.545-3.598 3.148-5.674 4.337-.205.118-.43.266-.66.363-.05-1.1-.21-2.214-.312-3.304.216-.062.435-.163.661-.318.972-.666 1.893-1.427 2.823-2.15a151.43 151.43 0 005.378-4.414c.008.043.015.095.027.159.057.299.12.596.18.895.059.298.12.596.175.895.053.29.206.713.156 1.01z" fill="#fff"/></svg>
